X:1
T:My Boy Tammie
M:C
L:1/8
B:Harding's All-Round Collection, No. 139  (1905)
Z:AK/Fiddler's Companion
K:Ddor
D|D>EF>G A>B c2|G>AG>F (E<C) zD|D>EF>G A>B c2|A>fe>d (A<d) z d|
d>ef>e d>cA>A|F>Ac>A G>EC>d|d>fe>f d>dA>A|F>GA>G (F<D) z:||

